X:1
T:Title
%%score 1 2
L:1/8
Q:1/4=80
M:2/4
K:G
V:1 treble nm="Drawbar Organ, Soprano"
V:2 bass nm="Church Organ, Covent Garden, 11.11.11.11"
V:1
 [DGB][DGB] [CDA][B,DG] | [CDG]2 [CDF]2 | [EFc][EFc] [DFB][EF_B] | [DGB]4 | %4
w: By~James~J.~Bell,~1917 * * *||||
 [DGB][DGB] [CDA][B,DG] | [CDG]2 [CDF]2 | [EFc][EFc] [DGB][CDA] | [B,DG]4 | %8
w: ||||
 [DBd][DGB] [CDA][B,DG] | [CDG]2 [CDF]2 | [EFc][EFc] [DFB][EF_B] | [DGB]4 | %12
w: ||||
 [DGB][DGB] [CDA][B,DG] | [=FGd]2 [EGc]2 | [DFB][EFc] [DGB][CDA] | [B,DG]4- | [B,DG]2 z2 |] %17
w: |||||
V:2
 G,,D, G,D, | A,,D, A,D, | D,,D, F,D, | G,,D, G,D, | G,,D, G,D, | A,,D, A,D, | D,,D, E,F, | %7
 G,D, G,,2 | G,,D, G,D, | A,,D, A,D, | D,,D, F,D, | G,,D, G,D, | G,,D, G,D, | B,,G, C,G, | %14
 D,2 E,F, | G,D, G,,2- | G,,2 z2 |] %17

